svgs/sharp-light/solar-panel.svg

<svg xmlns="http://www.w3.org/2000/svg" viewBox="0 0 640 512"><!--! Font Awesome Pro 6.6.0 by @fontawesome - https://fontawesome.com License - https://fontawesome.com/license (Commercial License) Copyright 2024 Fonticons, Inc. --><path d="M57.9 208l145.2 0L190.7 352 32 352l0-24L57.9 208zm6.9-32L96 32l122.4 0L206 176 64.9 176zM250.5 32l138.9 0 12.5 144-163.9 0L250.5 32zm171 0L544 32l31.1 144L434 176 421.6 32zM582.1 208L608 328l0 24-158.7 0L436.8 208l145.2 0zM417.2 352l-194.3 0 12.5-144 169.4 0 12.5 144zM569.8 0L70.2 0 0 324.6 0 352l0 32 32 0 272 0 0 96-96 0-16 0 0 32 16 0 96 0 32 0 96 0 16 0 0-32-16 0-96 0 0-96 272 0 32 0 0-32 0-27.4L569.8 0z"/></svg>

<svg xmlns="http://www.w3.org/2000/svg" viewBox="0 0 640 512"><!--! Font Awesome Pro 6.4.2 by @fontawesome - https://fontawesome.com License - https://fontawesome.com/license (Commercial License) Copyright 2023 Fonticons, Inc. --><path d="M57.9 208H203.2L190.7 352H32V328L57.9 208zm6.9-32L96 32H218.4L206 176H64.9zM250.5 32H389.5l12.5 144H238.1L250.5 32zm171 0H544l31.1 144H434L421.6 32zM582.1 208L608 328v24H449.3L436.8 208H582.1zM417.2 352H222.8l12.5-144H404.7l12.5 144zM569.8 0H70.2L0 324.6V352v32H32 304v96H208 192v32h16 96 32 96 16V480H432 336V384H608h32V352 324.6L569.8 0z"/></svg>
